source/images/icons/basket-icon.svg

<svg width="16.000000" height="16.000000" viewBox="0 0 16 16" fill="none" xmlns="http://www.w3.org/2000/svg" xmlns:xlink="http://www.w3.org/1999/xlink">
	<desc>
			Created with Pixso.
	</desc>
	<defs/>
	<path d="M5.66113 3.87549L5.89355 6.6665L10.1064 6.6665L10.3389 3.87549C10.4531 2.50684 9.37305 1.3335 8 1.3335C6.62695 1.3335 5.54688 2.50684 5.66113 3.87549ZM11.4443 6.6665L11.668 3.98633C11.8467 1.84033 10.1533 0 8 0C5.84668 0 4.15332 1.84033 4.33203 3.98633L4.55566 6.6665L1.34668 6.6665L0 6.6665L0.19043 8L1.00635 13.7104C1.19385 15.0244 2.31885 16 3.646 16L12.354 16C13.6812 16 14.8062 15.0244 14.9937 13.7104L15.8096 8L16 6.6665L14.6533 6.6665L11.4443 6.6665ZM11.3335 8L11.2803 8L11.0581 10.6665L14.0815 10.6665L14.4629 8L11.3335 8ZM9.94189 8L6.05811 8L6.28027 10.6665L9.71973 10.6665L9.94189 8ZM4.71973 8L4.6665 8L1.53711 8L1.91846 10.6665L4.94189 10.6665L4.71973 8ZM6.61328 14.6665L6.39111 12L9.60889 12L9.38672 14.6665L6.61328 14.6665ZM10.9468 12L10.7246 14.6665L12.354 14.6665C13.0176 14.6665 13.5801 14.1787 13.6738 13.522L13.8911 12L10.9468 12ZM5.05322 12L5.27539 14.6665L3.646 14.6665C2.98242 14.6665 2.41992 14.1787 2.32617 13.522L2.10889 12L5.05322 12Z" fill="#333333" fill-opacity="1.000000" fill-rule="evenodd"/>
</svg>

<svg viewBox="0 0 16 16"  xmlns="http://www.w3.org/2000/svg"><path d="m5.66 3.88.23 2.79h4.22l.23-2.8a2.35 2.35 0 1 0-4.68 0Zm5.78 2.79.23-2.68a3.68 3.68 0 1 0-7.34 0l.23 2.68h-4.56l.19 1.33.82 5.71a2.67 2.67 0 0 0 2.64 2.29h8.7c1.33 0 2.46-.98 2.64-2.29l.82-5.71.19-1.33h-4.55Zm-.1 1.33h-.06l-.22 2.67h3.02l.38-2.67h-3.13Zm-1.4 0h-3.88l.22 2.67h3.44l.22-2.67Zm-5.22 0h-3.18l.38 2.67h3.02l-.22-2.67Zm1.9 6.67-.23-2.67h3.22l-.22 2.67h-2.78Zm4.33-2.67-.23 2.67h1.63c.67 0 1.23-.5 1.32-1.15l.22-1.52h-2.94Zm-5.9 0 .23 2.67h-1.63c-.67 0-1.23-.5-1.32-1.15l-.22-1.52h2.94Z" fill-rule="evenodd"/></svg>
